svg/fluentui-system-icons/ic_fluent_bluetooth_48_filled.svg

<svg width="48" height="48" viewBox="0 0 48 48" fill="none" xmlns="http://www.w3.org/2000/svg">
<path d="M22.8897 4.12975C23.4309 3.88875 24.0631 3.98878 24.5035 4.38506L34.5035 13.3851C34.8143 13.6648 34.9942 14.0616 34.9999 14.4798C35.0055 14.8979 34.8363 15.2995 34.5331 15.5875L25.6779 24L34.5331 32.4125C34.8363 32.7005 35.0055 33.1021 34.9999 33.5202C34.9942 33.9384 34.8143 34.3352 34.5035 34.6149L24.5035 43.6149C24.0631 44.0112 23.4309 44.1112 22.8897 43.8702C22.3486 43.6292 22 43.0924 22 42.5V27.494L14.5331 34.5875C13.9325 35.1581 12.9831 35.1337 12.4125 34.5331C11.8419 33.9325 11.8663 32.9831 12.4669 32.4125L21.3221 24L12.4669 15.5875C11.8663 15.0169 11.8419 14.0675 12.4125 13.4669C12.9831 12.8663 13.9325 12.8419 14.5331 13.4125L22 20.506V5.5C22 4.90763 22.3486 4.37074 22.8897 4.12975ZM25 27.494V39.132L31.2908 33.4702L25 27.494ZM25 20.506L31.2908 14.5298L25 8.86804V20.506Z" fill="#212121"/>
</svg>

<svg xmlns="http://www.w3.org/2000/svg" width="48" height="48"><path d="M22.89 4.13a1.5 1.5 0 0 1 1.613.255l10 9a1.5 1.5 0 0 1 .03 2.203L25.678 24l8.855 8.413a1.5 1.5 0 0 1-.03 2.202l-10 9A1.5 1.5 0 0 1 22 42.5V27.494l-7.467 7.093a1.5 1.5 0 1 1-2.066-2.175L21.322 24l-8.855-8.412a1.5 1.5 0 1 1 2.066-2.175L22 20.505V5.5a1.5 1.5 0 0 1 .89-1.37ZM25 27.494v11.638l6.29-5.662L25 27.494Zm0-6.988 6.29-5.976L25 8.868v11.638Z"/></svg>
